svgs/sharp-light/person.svg

<svg xmlns="http://www.w3.org/2000/svg" viewBox="0 0 320 512"><!--! Font Awesome Pro 6.6.0 by @fontawesome - https://fontawesome.com License - https://fontawesome.com/license (Commercial License) Copyright 2024 Fonticons, Inc. --><path d="M160 80a24 24 0 1 0 0-48 24 24 0 1 0 0 48zm0-80a56 56 0 1 1 0 112A56 56 0 1 1 160 0zM99.3 128l9.6 0 102.2 0 9.6 0 4.5 8.5 76.9 144 7.5 14.1-28.2 15.1-7.5-14.1L224 202.2 224 496l0 16-32 0 0-16 0-144-64 0 0 144 0 16-32 0 0-16 0-293.9L46.1 295.5l-7.5 14.1L10.3 294.6l7.5-14.1 76.9-144 4.5-8.5zM128 320l64 0 0-160-64 0 0 160z"/></svg>

<svg xmlns="http://www.w3.org/2000/svg" viewBox="0 0 320 512"><!--! Font Awesome Pro 6.5.2 by @fontawesome - https://fontawesome.com License - https://fontawesome.com/license (Commercial License) Copyright 2024 Fonticons, Inc. --><path d="M160 80a24 24 0 1 0 0-48 24 24 0 1 0 0 48zm0-80a56 56 0 1 1 0 112A56 56 0 1 1 160 0zM99.3 128h9.6H211.1h9.6l4.5 8.5 76.9 144 7.5 14.1-28.2 15.1-7.5-14.1L224 202.2V496v16H192V496 352H128V496v16H96V496 202.1L46.1 295.5l-7.5 14.1L10.3 294.6l7.5-14.1 76.9-144 4.5-8.5zM128 320h64V160H128V320z"/></svg>
